X: 4509
T: Boo Baby's Lullaby
R: waltz
M: 3/4
K: Dmajor
A de|:f2 a2 (3faf|e3 f/e/ d/e/f/e/|d2 B3 c/d/|c/B/ A2 G FA|
G2 B2 d2|(3efe d2 ed|f2 a2 (3faf|e3 A de|
f2 a2 (3faf|e3 f/e/ d/e/f/e/|d2 B3 c/d/|c/B/A2 G FA|
G2 B2 d2|e2 f2 e2|1 d6|d3 A de:|2 d6|d2 AG FA||
|:G2 B2 d2|(3efe d2 ed|f3 g fd|A2 AG FA|
G2 B2 d2|e2 d2 ed|f2 a2 (3fae|e2 AG FA|
G2 B2 d2|(3efe d2 ed|f3 g fd|A2 AG FA|
B2 c2 d2|e2 f2 e2|d6|1 d2 AG FA:|2 d6||

